X:77
T:Cazadero
A:John Reischman solo
N:Transcribed by SM Block
R:bluegrass
L:1/8
Q:1/4=210
M:4/4
K:E
[AEC][A2E2C2][EC] [E2C2] [A2E2C2] | z[EC] [E2C2] [e2A2E2C2] GF |: E"E"E EE G2 ed | "A"cB cd ef ec | "E"Bc BA GF EG | 
|"B"FF FE DE FD | "E"EB, GE BG eB | "A"cB cd ef ec | (3"E"BcB Gc "B"BG FD |1 E2 EE EF GF :|2 E2 (3EEE E2 ce |]
|: e"E"e eg fe cd | ed eB cB GB | [e2e2] eg fe gf | "F#m"cf2c [f2c2] (3Bcd |
| "E"[e2d2] eg fe cd | (3efe dB cB GE | "F#m"FE FG FE CB, |1 C"A"[A2E2][AF] [E2C2] ce :|2 C"A"[A2E2][AF] [E2C2] GF |]
|: E"C#m"C CC [E2C2] gf | ec (3ccc "B"dB (3BBB | "A"c2 cB cB GE | "F#m"AF GE FA GF |
| "C#m"EC CC C2 gf | ec (3ccc "B"dB (3BBB | "A"cB cd ec BA |1 G"B"E FD "E"E2 GF :|2 G"B"E FD "E"E2 EE |] 
|: [g4e4G4] "B"[e4d4F4] | "A"[e2c2E2] [ecE][ecE] [e2c2E2] Be | "E"G[g3e3G3] "B"F[e3d3F3] | "A"[e2c2E2] [ecE][ecE] [e2c2E2] [e2c2E2] | 
|[e2c2G2] [ecG][ecG] [e2B2G2] [eBF][eBF] | [e2A2E2] [eAE][eAE] [e2A2E2] BB | "C#m"cd cB G2 GE |1 F"F#m"E FG "B"FE C2 :|2 F"F#m"E FG F"B"E CB, | "E"E8 | 

